resources/haticons/SVG/leaderboard.svg

<!-- Generated by IcoMoon.io -->
<svg version="1.1" xmlns="http://www.w3.org/2000/svg" width="24" height="24" viewBox="0 0 24 24">
<title>leaderboard</title>
<path d="M7.5 21h-5.484v-12h5.484v12zM14.766 3h-5.531v18h5.531v-18zM21.984 11.016h-5.484v9.984h5.484v-9.984z"></path>
</svg>

<svg xmlns="http://www.w3.org/2000/svg" width="24" height="24"><path d="M7.5 21H2.016V9H7.5v12zm7.266-18H9.235v18h5.531V3zm7.218 8.016H16.5V21h5.484v-9.984z"/></svg>
